Yaru++/apps/scalable/assistente-digitale.svg

<svg fill="none" height="256" viewBox="0 0 256 256" width="256" xmlns="http://www.w3.org/2000/svg" xmlns:xlink="http://www.w3.org/1999/xlink"><linearGradient id="a" gradientUnits="userSpaceOnUse" x1="176.2" x2="80.2" y1="236.696" y2="12.6961"><stop offset="0" stop-color="#e6e6e6"/><stop offset="1" stop-color="#d3d3d3"/></linearGradient><path d="m128.2 240.696c61.856 0 112-50.144 112-112 0-61.8558-50.144-112-112-112-61.8559 0-112 50.1442-112 112 0 61.856 50.1441 112 112 112z" fill="#000" opacity=".1"/><path d="m128.2 238.696c61.856 0 112-50.144 112-112 0-61.8558-50.144-112-112-112-61.8559 0-112 50.1442-112 112 0 61.856 50.1441 112 112 112z" fill="#000" opacity=".1"/><path d="m128.2 238.696c62.96 0 114-51.039 114-114 0-62.9604-51.04-114-114-114-62.9604 0-114 51.0396-114 114 0 62.961 51.0396 114 114 114z" fill="#000" opacity=".1"/><path d="m128.2 12.696c-61.8559 0-112 50.1441-112 112 0 61.856 50.1441 112 112 112 61.856 0 112-50.144 112-112 0-61.8559-50.144-112-112-112z" fill="url(#a)"/><path d="m16.2 134.392c2.5508 27.943 15.4487 53.925 36.1642 72.851s47.7538 29.43 75.8138 29.453c28.067-.011 55.116-10.511 75.841-29.438s33.629-44.915 36.181-72.866z" fill="#fff" opacity=".25"/><path d="m127.796 212.693c48.601 0 88-39.399 88-88 0-48.6011-39.399-88-88-88-48.6014 0-88.0003 39.3989-88.0003 88 0 48.601 39.3989 88 88.0003 88z" fill="#e01b24"/><path d="m40.2 124.696c0-11.556 2.2762-22.999 6.6986-33.6761 4.4224-10.6766 10.9045-20.3777 19.076-28.5493 8.1716-8.1715 17.8726-14.6535 28.5493-19.076 10.6771-4.4224 22.1201-6.6986 33.6761-6.6986s23 2.2762 33.676 6.6986c10.677 4.4225 20.378 10.9045 28.549 19.076 8.172 8.1716 14.654 17.8727 19.076 28.5493 4.423 10.6771 6.699 22.1201 6.699 33.6761z" fill="#000" opacity=".05"/><path d="m128.2 12.696c-14.708 0-29.2721 2.897-42.8605 8.5255-13.5885 5.6286-25.9353 13.8784-36.3354 24.2786-10.4002 10.4001-18.6501 22.7469-24.2786 36.3354s-8.5255 28.1525-8.5255 42.8605c.0116.39.0253.78.041 1.17.2191-29.5531 12.11-57.8218 33.0816-78.6455 20.9715-20.8237 49.3235-32.5144 78.8774-32.5245 29.496.0092 57.797 11.6533 78.759 32.4038 20.962 20.7506 32.892 48.9324 33.2 78.4262.015-.277.028-.553.041-.83 0-14.708-2.897-29.272-8.526-42.8605-5.628-13.5885-13.878-25.9353-24.278-36.3354-10.4-10.4002-22.747-18.65-36.335-24.2786-13.589-5.6285-28.153-8.5255-42.861-8.5255z" fill="#fff" opacity=".3"/><path d="m128.2 236.696c-29.7042 0-58.1919-11.8-79.1959-32.804-21.0041-21.004-32.8041-49.492-32.8041-79.196.0116-.39.0253-.78.041-1.17.2191 29.553 12.11 57.822 33.0816 78.646 20.9715 20.823 49.3235 32.514 78.8774 32.524 29.496-.009 57.797-11.653 78.759-32.404 20.962-20.75 32.892-48.932 33.2-78.426.015.277.028.553.041.83 0 29.704-11.8 58.192-32.804 79.196s-49.492 32.804-79.196 32.804z" fill="#000" opacity=".2"/><g fill="#deddda"><path d="m151.838 176.925c0 3.733-11.129 6.758-24.858 6.758s-24.858-3.025-24.858-6.758 11.129-6.758 24.858-6.758 24.858 3.025 24.858 6.758z"/><path d="m151.838 107.804h-48.613v-2.097h48.613z"/><path d="m127.303 177.844h-.646c-1.452 0-2.629-1.177-2.629-2.628v-23.369h5.904v23.369c0 1.451-1.177 2.628-2.629 2.628z"/><path d="m151.057 100.331v27.31c0 12.847-10.415 23.261-23.261 23.261-12.847 0-23.261-10.414-23.261-23.261v-27.31h-4.6269v27.888c0 15.402 12.4859 27.887 27.8879 27.887 15.401 0 27.887-12.485 27.887-27.887v-27.888z"/></g><path d="m127.925 147.73c-11.279 0-20.507-9.228-20.507-20.507v-41.0133c0-11.2787 9.228-20.5068 20.507-20.5068s20.507 9.2281 20.507 20.5068v41.0133c0 11.279-9.228 20.507-20.507 20.507z" fill="#60767b"/><path d="m127.925 147.73c-11.279 0-20.507-9.228-20.507-20.507v-41.0133c0-11.2787 9.228-20.5068 20.507-20.5068s20.507 9.2281 20.507 20.5068v41.0133c0 11.279-9.228 20.507-20.507 20.507z" fill="#deddda"/><path d="m107.289 121.066v6.157c0 11.279 9.228 20.507 20.507 20.507 11.278 0 20.506-9.228 20.506-20.507v-6.218" fill="#9a9996"/><path d="m148.531 121.305h-41.295v-9.726h41.295z" fill="#57e389"/></svg>

<svg width="256" height="256" viewBox="0 0 256 256" fill="none" xmlns="http://www.w3.org/2000/svg">
<path opacity="0.1" d="M128.2 240.696C190.056 240.696 240.2 190.552 240.2 128.696C240.2 66.8402 190.056 16.696 128.2 16.696C66.3441 16.696 16.2 66.8402 16.2 128.696C16.2 190.552 66.3441 240.696 128.2 240.696Z" fill="black"/>
<path opacity="0.1" d="M128.2 238.696C190.056 238.696 240.2 188.552 240.2 126.696C240.2 64.8402 190.056 14.696 128.2 14.696C66.3441 14.696 16.2 64.8402 16.2 126.696C16.2 188.552 66.3441 238.696 128.2 238.696Z" fill="black"/>
<path opacity="0.1" d="M128.2 238.696C191.16 238.696 242.2 187.657 242.2 124.696C242.2 61.7356 191.16 10.696 128.2 10.696C65.2396 10.696 14.2 61.7356 14.2 124.696C14.2 187.657 65.2396 238.696 128.2 238.696Z" fill="black"/>
<path d="M128.2 12.696C66.3441 12.696 16.2 62.8401 16.2 124.696C16.2 186.552 66.3441 236.696 128.2 236.696C190.056 236.696 240.2 186.552 240.2 124.696C240.2 62.8401 190.056 12.696 128.2 12.696Z" fill="url(#paint0_linear)"/>
<path opacity="0.25" d="M16.2 134.392C18.7508 162.335 31.6487 188.317 52.3642 207.243C73.0797 226.169 100.118 236.673 128.178 236.696C156.245 236.685 183.294 226.185 204.019 207.258C224.744 188.331 237.648 162.343 240.2 134.392H16.2Z" fill="white"/>
<path d="M127.796 212.693C176.397 212.693 215.796 173.294 215.796 124.693C215.796 76.0919 176.397 36.693 127.796 36.693C79.1946 36.693 39.7957 76.0919 39.7957 124.693C39.7957 173.294 79.1946 212.693 127.796 212.693Z" fill="#E01B24"/>
<path opacity="0.05" d="M40.2 124.696C40.2 113.14 42.4762 101.697 46.8986 91.0199C51.321 80.3433 57.8031 70.6422 65.9746 62.4706C74.1462 54.2991 83.8472 47.8171 94.5239 43.3946C105.201 38.9722 116.644 36.696 128.2 36.696C139.756 36.696 151.2 38.9722 161.876 43.3946C172.553 47.8171 182.254 54.2991 190.425 62.4706C198.597 70.6422 205.079 80.3433 209.501 91.0199C213.924 101.697 216.2 113.14 216.2 124.696H40.2Z" fill="black"/>
<path opacity="0.3" d="M128.2 12.696C113.492 12.696 98.9279 15.593 85.3395 21.2215C71.751 26.8501 59.4042 35.0999 49.0041 45.5001C38.6039 55.9002 30.354 68.247 24.7255 81.8355C19.097 95.424 16.2 109.988 16.2 124.696C16.2116 125.086 16.2253 125.476 16.241 125.866C16.4601 96.3129 28.351 68.0442 49.3226 47.2205C70.2941 26.3968 98.6461 14.7061 128.2 14.696C157.696 14.7052 185.997 26.3493 206.959 47.0998C227.921 67.8504 239.851 96.0322 240.159 125.526C240.174 125.249 240.187 124.973 240.2 124.696C240.2 109.988 237.303 95.424 231.674 81.8355C226.046 68.247 217.796 55.9002 207.396 45.5001C196.996 35.0999 184.649 26.8501 171.061 21.2215C157.472 15.593 142.908 12.696 128.2 12.696H128.2Z" fill="white"/>
<path opacity="0.2" d="M128.2 236.696C98.4958 236.696 70.0081 224.896 49.0041 203.892C28 182.888 16.2 154.4 16.2 124.696C16.2116 124.306 16.2253 123.916 16.241 123.526C16.4601 153.079 28.351 181.348 49.3226 202.172C70.2941 222.995 98.6461 234.686 128.2 234.696C157.696 234.687 185.997 223.043 206.959 202.292C227.921 181.542 239.851 153.36 240.159 123.866C240.174 124.143 240.187 124.419 240.2 124.696C240.2 154.4 228.4 182.888 207.396 203.892C186.392 224.896 157.904 236.696 128.2 236.696H128.2Z" fill="black"/>
<path d="M151.838 176.925C151.838 180.658 140.709 183.683 126.98 183.683C113.251 183.683 102.122 180.658 102.122 176.925C102.122 173.192 113.251 170.167 126.98 170.167C140.709 170.167 151.838 173.192 151.838 176.925Z" fill="#DEDDDA"/>
<path d="M151.838 107.804H103.225V105.707H151.838V107.804Z" fill="#DEDDDA"/>
<path d="M127.303 177.844H126.657C125.205 177.844 124.028 176.667 124.028 175.216V151.847H129.932V175.216C129.932 176.667 128.755 177.844 127.303 177.844Z" fill="#DEDDDA"/>
<path d="M151.057 100.331V127.641C151.057 140.488 140.642 150.902 127.796 150.902C114.949 150.902 104.535 140.488 104.535 127.641V100.331H99.9081V128.219C99.9081 143.621 112.394 156.106 127.796 156.106C143.197 156.106 155.683 143.621 155.683 128.219V100.331H151.057Z" fill="#DEDDDA"/>
<path d="M127.925 147.73C116.646 147.73 107.418 138.502 107.418 127.223V86.2097C107.418 74.931 116.646 65.7029 127.925 65.7029C139.204 65.7029 148.432 74.931 148.432 86.2097V127.223C148.432 138.502 139.204 147.73 127.925 147.73Z" fill="#60767B"/>
<path d="M127.925 147.73C116.646 147.73 107.418 138.502 107.418 127.223V86.2097C107.418 74.931 116.646 65.7029 127.925 65.7029C139.204 65.7029 148.432 74.931 148.432 86.2097V127.223C148.432 138.502 139.204 147.73 127.925 147.73Z" fill="#DEDDDA"/>
<path d="M107.289 121.066V127.223C107.289 138.502 116.517 147.73 127.796 147.73C139.074 147.73 148.302 138.502 148.302 127.223V121.005" fill="#9A9996"/>
<path d="M148.531 121.305H107.236V111.579H148.531V121.305Z" fill="#57E389"/>
<defs>
<linearGradient id="paint0_linear" x1="176.2" y1="236.696" x2="80.2" y2="12.6961" gradientUnits="userSpaceOnUse">
<stop stop-color="#E6E6E6"/>
<stop offset="1" stop-color="#D3D3D3"/>
</linearGradient>
</defs>
</svg>
